X:834
M:C|
L:1/8
K:D
g|faef d/d/d fd|B2ed cAAg|faef d/d/d fd|B2BA d2d:|
|:A|FDAF G2BG|FDAF E=CCE|1 FDAF GABG|FDEC D2D:|2

